X:3036
L:1/16
Q:1/4=100
M:2/4
K:D
|: d2a2 | a2gf e2g2 | Tf4 dAFD | (Bcd2) g2f2 | Te4 d2a2 | a2gf e2g2 | Tf4 dAFD | Bcd2 F2E2 | D4 |:

